X:1
T:East Bound Train (Going for a Pardon)
M:3/4
L:1/4
K:E
 E| G2 G| G- F G| F E2| z2 E/2E/2| E2 F| E- D C| B,3| z3| z3| z2 G|\
 B G B| A2 G| F/2 C/2- C2| z z G/2F/2| G/2- F3/2 E| D- E F| E3| z2||\
